X:1
T:Polly on the Shore
M:4/4
L:1/8
K:F
C-C| F2D-CB,-C_E-D| C6 CC| F2A-B c2B-A| G6- F2| G2 AG c2c-d| cB GE FF GA|\
 G2F-DB,-C_E-D| C6||
